Numix-GalliumOS/16/actions/zoom-fit-width.svg

<svg xmlns="http://www.w3.org/2000/svg" viewBox="0 0 16 16">
 <g transform="translate(0 -1036.3622)">
  <rect width="14" x="1" y="1037.36" rx="2.154" height="14" style="fill:#268bd2"/>
 </g>
 <g>
  <path d="m 5 5 l 0 6 l 6 0 l 0 -6 l -6 0 z m 1 1 l 4 0 l 0 4 l -4 0 l 0 -4 z" style="fill:#fff;fill-opacity:0.9"/>
  <rect y="3" x="3" height="10" width="1" style="fill:#fff;opacity:1;fill-opacity:0.902;stroke:none"/>
  <rect width="1" height="10" x="12" y="3" style="fill:#fff;opacity:1;fill-opacity:0.902;stroke:none"/>
 </g>
</svg>

<?xml version="1.0" encoding="UTF-8" standalone="no"?>
<svg
   xmlns:dc="http://purl.org/dc/elements/1.1/"
   xmlns:cc="http://creativecommons.org/ns#"
   xmlns:rdf="http://www.w3.org/1999/02/22-rdf-syntax-ns#"
   xmlns:svg="http://www.w3.org/2000/svg"
   xmlns="http://www.w3.org/2000/svg"
   xmlns:sodipodi="http://sodipodi.sourceforge.net/DTD/sodipodi-0.dtd"
   xmlns:inkscape="http://www.inkscape.org/namespaces/inkscape"
   viewBox="0 0 16 16"
   id="svg2"
   version="1.1"
   inkscape:version="0.91 r13725"
   sodipodi:docname="zoom-fit-width.svg">
  <metadata
     id="metadata18">
    <rdf:RDF>
      <cc:Work
         rdf:about="">
        <dc:format>image/svg+xml</dc:format>
        <dc:type
           rdf:resource="http://purl.org/dc/dcmitype/StillImage" />
        <dc:title></dc:title>
      </cc:Work>
    </rdf:RDF>
  </metadata>
  <sodipodi:namedview
     pagecolor="#ffffff"
     bordercolor="#666666"
     borderopacity="1"
     objecttolerance="10"
     gridtolerance="10"
     guidetolerance="10"
     inkscape:pageopacity="0"
     inkscape:pageshadow="2"
     inkscape:window-width="1366"
     inkscape:window-height="704"
     id="namedview16"
     showgrid="true"
     inkscape:zoom="29.5"
     inkscape:cx="3.9457798"
     inkscape:cy="8"
     inkscape:window-x="0"
     inkscape:window-y="27"
     inkscape:window-maximized="1"
     inkscape:current-layer="svg2">
    <inkscape:grid
       type="xygrid"
       id="grid4146" />
  </sodipodi:namedview>
  <defs
     id="defs4" />
  <g
     transform="translate(0 -1036.3622)"
     id="g6">
    <rect
       width="14"
       x="1"
       y="1037.362"
       rx="2.154"
       height="14"
       style="fill:#268bd2"
       id="rect8" />
    <g
       style="fill-opacity:.9;fill:#fff"
       id="g10" />
  </g>
  <g
     id="g4153">
    <path
       id="path14"
       d="M 5 5 L 5 11 L 11 11 L 11 5 L 5 5 z M 6 6 L 10 6 L 10 10 L 6 10 L 6 6 z "
       style="fill-opacity:0.9;fill:#fff" />
    <rect
       y="3"
       x="3"
       height="10"
       width="1"
       id="rect4148"
       style="opacity:1;fill:#ffffff;fill-opacity:0.90196078;stroke:none;stroke-width:1.5;stroke-linecap:round;stroke-linejoin:round;stroke-miterlimit:4;stroke-dasharray:none;stroke-opacity:1" />
    <rect
       style="opacity:1;fill:#ffffff;fill-opacity:0.90196078;stroke:none;stroke-width:1.5;stroke-linecap:round;stroke-linejoin:round;stroke-miterlimit:4;stroke-dasharray:none;stroke-opacity:1"
       id="rect4150"
       width="1"
       height="10"
       x="12"
       y="3" />
  </g>
</svg>
